X:103
T:Pady Whark
T:Irish Tunes from Aird's Coll.
N:^as per MS
T:John Malchair's Third Collection of Tunes
%%VWML:Malchair-3619-p103
F:https://www.vwml.org/record/Malchair/3619/p103
F:www.vwml.org/topics/historic-dance-and-tune-books/Malchair
Z:Peter Kanssen March 2020
M:6/8
L:1/8
K:G
D | GBd gfg | edc B2A | GBd gea | fdd d2=f | 
ece efg | dBG A2G | GAB cAd | BGG G2 ||
B/c/ | dBd ece | dBG A2G | Bcd gea | fdd"^*NB" d3[N:*d3 as per MS]=f |
ece (e/f/)ge | dBG A2G | GAB cAd | BGG G2 ||
W:
T:Lather awa' wi' your Oatstick
T:John Malchair's Third Collection of Tunes
F:https://www.vwml.org/record/Malchair/3619/p103
F:www.vwml.org/topics/historic-dance-and-tune-books/Malchair
M:6/8
L:1/8
K:G
BGG G2B | ded d2c | BGG GBd | e3 g3 | 
GBd gfe | edc cBA | BGE EDE | c3 edc | 
BGE EDE | GED D2c | BGE EDE | c3 edc | 
BGE EDE | GED D2c | BGA BGE | G3 G3 ||
